tools/download-figma-icons/icons/outlined-large/vacation.svg

<svg width="64" height="64" viewBox="0 0 64 64" fill="none" xmlns="http://www.w3.org/2000/svg">
<path fill-rule="evenodd" clip-rule="evenodd" d="M50.5 5C51.328 5 52 4.328 52 3.5V1.5C52 0.672 51.328 0 50.5 0C49.672 0 49 0.672 49 1.5V3.5C49 4.328 49.672 5 50.5 5ZM56.27 58.53C57.603 56.957 59.262 55 62.5 55C63.328 55 64 55.672 64 56.5C64 57.328 63.328 58 62.5 58C60.737 58 59.896 58.893 58.559 60.47C57.226 62.043 55.566 64 52.329 64C49.091 64 47.432 62.043 46.099 60.47C44.762 58.893 43.92 58 42.157 58C40.397 58 39.556 58.893 38.22 60.47L38.2199 60.4701C36.8879 62.0421 35.2289 64 31.993 64C28.7564 64 27.0984 62.0435 25.7655 60.4706L25.765 60.47C24.429 58.893 23.586 58 21.825 58C20.065 58 19.224 58.893 17.888 60.47L17.8879 60.4701C16.5559 62.0421 14.8969 64 11.661 64C11.6474 64 11.6345 63.9985 11.6218 63.997L11.6217 63.9969C11.6092 63.9955 11.5969 63.994 11.584 63.994C11.5742 63.9947 11.5644 63.9956 11.5546 63.9965C11.5355 63.9983 11.5165 64 11.498 64C11.4763 64 11.456 63.9947 11.4357 63.9894C11.4178 63.9846 11.3998 63.9799 11.381 63.979C8.338 63.864 6.728 61.994 5.437 60.47C4.101 58.893 3.26 58 1.5 58C0.672 58 0 57.328 0 56.5C0 55.672 0.672 55 1.5 55C2.265 55 2.935 55.116 3.54 55.304C2.368 47.239 0.212 25.096 9.812 15.084C8.31055 11.2534 1.93734 11.9598 1.69834 11.9863L1.692 11.987C0.876 12.097 0.12 11.513 0.014 10.692C-0.093 9.872 0.484 9.121 1.305 9.013C4.003 8.661 8.727 9.003 11.318 11.881C11.625 8.601 8.056 6.945 7.887 6.869C7.131 6.53 6.792 5.643 7.131 4.887C7.47 4.131 8.355 3.793 9.113 4.131C11.093 5.019 14.179 7.453 14.351 11.13C18.3733 7.6203 24.2856 7.98404 24.6076 8.00385L24.61 8.004C25.437 8.065 26.057 8.784 25.996 9.61C25.936 10.437 25.215 11.065 24.392 10.996L24.3852 10.9957C24.1951 10.9863 20.9125 10.8251 18.056 12.246C21.404 12.674 23.779 15.044 24.788 16.73C25.213 17.442 24.98 18.363 24.27 18.788C24.028 18.932 23.763 19 23.501 19C22.993 19 22.497 18.741 22.216 18.274C21.966 17.866 20.001 14.89 16.466 15.217C20.5 17.67 21.878 23.221 21.999 26.443C22.03 27.271 21.384 27.968 20.557 27.999L20.5399 27.9996L20.5219 27.9999L20.499 28C19.697 28 19.033 27.366 19.001 26.559C18.997 26.467 18.558 17.414 12.398 16.996C12.32 16.991 12.247 16.975 12.173 16.958C1.549 27.582 6.741 56.47 6.962 57.66C7.229 57.954 7.486 58.248 7.726 58.531C8.477 59.417 9.075 60.078 9.764 60.495C9.265 55.232 8.617 42.083 13.742 36.169C12.727 34.786 9.67 34.99 9.638 34.994C8.808 35.063 8.082 34.463 8.006 33.638C7.931 32.813 8.537 32.082 9.362 32.006C10.962 31.861 13.375 32.084 15.08 33.307C14.9 31.698 13.199 30.99 12.975 30.905C12.205 30.61 11.812 29.748 12.101 28.977C12.39 28.203 13.24 27.806 14.016 28.092C15.619 28.679 18.352 30.631 18.084 33.991C18.846 33.79 19.514 33.808 20.029 33.903C22.377 34.335 23.667 36.516 23.807 36.764C24.214 37.485 23.958 38.399 23.236 38.807C23.004 38.938 22.751 39 22.501 39C21.98 39 21.474 38.729 21.197 38.244C20.999 37.904 20.307 36.998 19.477 36.852C19.3957 36.8379 19.3105 36.8417 19.2248 36.8455L19.191 36.847C20.707 38.717 21.091 41.598 20.998 43.57C20.961 44.374 20.297 45 19.501 45C19.478 45 19.453 44.999 19.43 44.998C18.603 44.96 17.964 44.258 18.002 43.432C18.005 43.346 18.113 38.97 16.002 38.138C11.867 42.877 12.178 54.938 12.809 60.841C13.862 60.52 14.59 59.721 15.599 58.53L15.6003 58.5284C16.9321 56.9567 18.5901 55 21.825 55C25.062 55 26.721 56.957 28.054 58.53C29.39 60.107 30.232 61 31.993 61C33.753 61 34.595 60.107 35.931 58.53L35.9323 58.5284C37.2641 56.9567 38.9221 55 42.157 55C45.396 55 47.055 56.957 48.388 58.53C49.725 60.107 50.566 61 52.329 61C54.091 61 54.933 60.107 56.27 58.53ZM53 13.5C53 12.121 51.879 11 50.5 11C49.121 11 48 12.121 48 13.5C48 14.879 49.121 16 50.5 16C51.879 16 53 14.879 53 13.5ZM56 13.5C56 16.532 53.532 19 50.5 19C47.468 19 45 16.532 45 13.5C45 10.468 47.468 8 50.5 8C53.532 8 56 10.468 56 13.5ZM43.4292 7.9283C43.0452 7.9283 42.6612 7.7823 42.3682 7.4893L40.9542 6.0753C40.3682 5.4893 40.3682 4.5403 40.9542 3.9543C41.5402 3.3683 42.4892 3.3683 43.0752 3.9543L44.4892 5.3683C45.0752 5.9543 45.0752 6.9033 44.4892 7.4893C44.1962 7.7823 43.8122 7.9283 43.4292 7.9283ZM38.5 15H40.5C41.328 15 42 14.328 42 13.5C42 12.672 41.328 12 40.5 12H38.5C37.672 12 37 12.672 37 13.5C37 14.328 37.672 15 38.5 15ZM40.9542 20.9247L42.3682 19.5107C42.9542 18.9247 43.9032 18.9247 44.4892 19.5107C45.0752 20.0967 45.0752 21.0457 44.4892 21.6317L43.0752 23.0457C42.7822 23.3387 42.3982 23.4857 42.0142 23.4857C41.6312 23.4857 41.2472 23.3387 40.9542 23.0457C40.3682 22.4597 40.3682 21.5107 40.9542 20.9247ZM49 23.5V25.5C49 26.328 49.672 27 50.5 27C51.328 27 52 26.328 52 25.5V23.5C52 22.672 51.328 22 50.5 22C49.672 22 49 22.672 49 23.5ZM56.5108 19.5107C57.0968 18.9247 58.0458 18.9247 58.6318 19.5107L60.0458 20.9247C60.6318 21.5107 60.6318 22.4597 60.0458 23.0457C59.7528 23.3387 59.3688 23.4857 58.9858 23.4857C58.6018 23.4857 58.2178 23.3387 57.9248 23.0457L56.5108 21.6317C55.9248 21.0457 55.9248 20.0967 56.5108 19.5107ZM58.9033 13.5C58.9033 14.328 59.5753 15 60.4033 15H62.4033C63.2313 15 63.9033 14.328 63.9033 13.5C63.9033 12.672 63.2313 12 62.4033 12H60.4033C59.5753 12 58.9033 12.672 58.9033 13.5ZM58.563 7.559C58.27 7.852 57.886 7.998 57.502 7.998C57.118 7.998 56.734 7.852 56.441 7.559C55.856 6.973 55.856 6.023 56.441 5.437L57.856 4.022C58.442 3.436 59.392 3.436 59.978 4.022C60.564 4.608 60.564 5.558 59.978 6.144L58.563 7.559Z" fill="black"/>
</svg>

<svg xmlns="http://www.w3.org/2000/svg" width="64" height="64" fill="none" viewBox="0 0 64 64"><path fill="currentColor" fill-rule="evenodd" d="M50.5 5A1.5 1.5 0 0 0 52 3.5v-2a1.5 1.5 0 0 0-3 0v2A1.5 1.5 0 0 0 50.5 5m5.77 53.53C57.603 56.957 59.262 55 62.5 55a1.5 1.5 0 0 1 0 3c-1.763 0-2.604.893-3.941 2.47-1.333 1.573-2.993 3.53-6.23 3.53s-4.897-1.957-6.23-3.53C44.762 58.893 43.92 58 42.157 58c-1.76 0-2.601.893-3.937 2.47-1.332 1.572-2.991 3.53-6.227 3.53s-4.895-1.956-6.227-3.53h-.001c-1.336-1.577-2.179-2.47-3.94-2.47-1.76 0-2.601.893-3.937 2.47C16.556 62.042 14.897 64 11.66 64l-.04-.003q-.018-.003-.037-.003l-.03.002-.056.004a.3.3 0 0 1-.062-.01.3.3 0 0 0-.055-.011c-3.043-.115-4.653-1.985-5.944-3.509C4.101 58.893 3.26 58 1.5 58a1.5 1.5 0 0 1 0-3c.765 0 1.435.116 2.04.304-1.172-8.065-3.328-30.208 6.272-40.22-1.501-3.83-7.875-3.124-8.114-3.098l-.006.001a1.499 1.499 0 0 1-.387-2.974c2.698-.352 7.422-.01 10.013 2.868.307-3.28-3.262-4.936-3.431-5.012-.756-.339-1.095-1.226-.756-1.982s1.224-1.094 1.982-.756c1.98.888 5.066 3.322 5.238 6.999 4.022-3.51 9.935-3.146 10.257-3.126h.002a1.5 1.5 0 0 1 1.386 1.606 1.494 1.494 0 0 1-1.604 1.386h-.007c-.19-.01-3.472-.17-6.329 1.25 3.348.428 5.723 2.798 6.732 4.484A1.502 1.502 0 0 1 23.501 19a1.5 1.5 0 0 1-1.285-.726c-.25-.408-2.215-3.384-5.75-3.057 4.034 2.453 5.412 8.004 5.533 11.226a1.5 1.5 0 0 1-1.442 1.556h-.035l-.023.001a1.5 1.5 0 0 1-1.498-1.441c-.004-.092-.443-9.145-6.603-9.563a1.4 1.4 0 0 1-.225-.038C1.549 27.582 6.741 56.47 6.962 57.66c.267.294.524.588.764.871.751.886 1.349 1.547 2.038 1.964-.499-5.263-1.147-18.412 3.978-24.326-1.015-1.383-4.072-1.179-4.104-1.175a1.503 1.503 0 0 1-1.632-1.356 1.5 1.5 0 0 1 1.356-1.632c1.6-.145 4.013.078 5.718 1.301-.18-1.609-1.881-2.317-2.105-2.402a1.504 1.504 0 0 1-.874-1.928 1.49 1.49 0 0 1 1.915-.885c1.603.587 4.336 2.539 4.068 5.899a4.45 4.45 0 0 1 1.945-.088c2.348.432 3.638 2.613 3.778 2.861a1.5 1.5 0 0 1-2.61 1.48c-.198-.34-.89-1.246-1.72-1.392-.081-.014-.166-.01-.252-.006l-.034.001c1.516 1.87 1.9 4.751 1.807 6.723a1.5 1.5 0 0 1-2.996-.138c.003-.086.111-4.462-2-5.294-4.135 4.739-3.824 16.8-3.193 22.703 1.053-.321 1.781-1.12 2.79-2.311l.001-.002C16.932 56.957 18.59 55 21.825 55c3.237 0 4.896 1.957 6.229 3.53C29.39 60.107 30.232 61 31.993 61c1.76 0 2.602-.893 3.938-2.47l.001-.002C37.264 56.957 38.922 55 42.157 55c3.239 0 4.898 1.957 6.231 3.53 1.337 1.577 2.178 2.47 3.941 2.47s2.604-.893 3.941-2.47M53 13.5c0-1.379-1.121-2.5-2.5-2.5a2.5 2.5 0 0 0-2.5 2.5c0 1.379 1.121 2.5 2.5 2.5s2.5-1.121 2.5-2.5m3 0c0 3.032-2.468 5.5-5.5 5.5a5.507 5.507 0 0 1-5.5-5.5c0-3.032 2.468-5.5 5.5-5.5s5.5 2.468 5.5 5.5M43.43 7.928c-.385 0-.769-.146-1.062-.439l-1.414-1.414a1.5 1.5 0 1 1 2.121-2.12l1.414 1.413a1.5 1.5 0 0 1-1.06 2.56M38.5 15h2a1.5 1.5 0 0 0 0-3h-2a1.5 1.5 0 0 0 0 3m2.454 5.925 1.414-1.414a1.5 1.5 0 1 1 2.121 2.12l-1.414 1.415a1.496 1.496 0 0 1-2.12 0 1.5 1.5 0 0 1 0-2.121M49 23.5v2a1.5 1.5 0 0 0 3 0v-2a1.5 1.5 0 0 0-3 0m7.51-3.99a1.5 1.5 0 0 1 2.122 0l1.414 1.415a1.5 1.5 0 1 1-2.121 2.12l-1.414-1.413a1.5 1.5 0 0 1 0-2.121m2.393-6.01a1.5 1.5 0 0 0 1.5 1.5h2a1.5 1.5 0 0 0 0-3h-2a1.5 1.5 0 0 0-1.5 1.5m-.34-5.941a1.5 1.5 0 0 1-1.061.439 1.502 1.502 0 0 1-1.061-2.561l1.415-1.415a1.5 1.5 0 1 1 2.122 2.122z" clip-rule="evenodd"/></svg>
